;POSTPROCESSED
;Generated with Cura_SteamEngine 4.8.0
;
;
; 

; external perimeters extrusion width = 0.45mm
; perimeters extrusion width = 0.45mm
; infill extrusion width = 0.45mm
; solid infill extrusion width = 0.45mm
; top infill extrusion width = 0.40mm
; support material extrusion width = 0.35mm
; first layer extrusion width = 0.50mm

M190 S60 ; set bed temperature and wait for it to be reached
M104 S210 ; set temperature
;TYPE:Custom
G28;
M109 S210 ; set temperature and wait for it to be reached
G21 ; set units to millimeters
G90 ; use absolute coordinates
M83 ; use relative distances for extrusion
; Filament gcode
G92 E0 ; reset extruder
G1 Z1.0 F3000 ; move z up little to prevent scratching of surface
G1 X2 Y20 Z0.3 F5000.0 ; move to start-line position
G1 X2 Y200.0 Z0.3 F1500.0 E15 ; draw 1st line
G1 X2 Y200.0 Z0.4 F5000.0 ; move to side a little
G1 X2 Y20 Z0.4 F1500.0 E15 ; draw 2nd line
G92 E0 ; reset extruder
G1 E-2 Z10.0 F3000 ; move z up little to prevent scratching of surface
G92 E0
NOZZLE_WIPE
M107
;LAYER_CHANGE
;Z:0.2
;HEIGHT:0.2
G1 Z.2 F600
G1 E-1.6 F2400
G1 Z.6 F600
M204 S8000
G1 X98.954 Y105.378 F24000
G1 Z.2 F600
G1 E1.6 F2400
M204 S500
;TYPE:Skirt/Brim
;WIDTH:0.5
G1 F1800
G1 X99.689 Y104.815 E.03519
G1 X100.383 Y104.379 E.03115
G1 X101.064 Y104.027 E.02914
G1 X102.028 Y103.643 E.03944
G1 X103.262 Y103.32 E.04848
G1 X103.937 Y103.219 E.02594
G1 X104.623 Y103.165 E.02615
G1 X135.363 Y103.165 E1.16831
G1 X136.169 Y103.231 E.03074
G1 X136.958 Y103.366 E.03042
G1 X137.743 Y103.57 E.03083
G1 X138.505 Y103.84 E.03073
G1 X139.297 Y104.205 E.03314
G1 X140.044 Y104.637 E.0328
G1 X140.685 Y105.087 E.02977
G1 X141.261 Y105.566 E.02847
G1 X141.932 Y106.238 E.03609
G1 X142.466 Y106.886 E.03191
G1 X142.93 Y107.562 E.03116
G1 X143.299 Y108.211 E.02837
G1 X143.64 Y108.947 E.03083
G1 X143.919 Y109.723 E.03134
G1 X144.141 Y110.575 E.03346
G1 X144.274 Y111.374 E.03078
G1 X144.342 Y112.436 E.04045
G1 X144.342 Y127.564 E.57496
G1 X144.265 Y128.7 E.04327
G1 X144.122 Y129.511 E.0313
G1 X143.831 Y130.547 E.0409
G1 X143.451 Y131.483 E.03839
G1 X142.976 Y132.365 E.03807
G1 X142.444 Y133.143 E.03582
G1 X141.805 Y133.901 E.03768
G1 X141.029 Y134.636 E.04062
G1 X140.246 Y135.23 E.03735
G1 X139.239 Y135.825 E.04445
G1 X138.561 Y136.137 E.02837
G1 X137.896 Y136.382 E.02693
G1 X136.81 Y136.665 E.04265
G1 X136.081 Y136.779 E.02804
G1 X135.377 Y136.835 E.02684
G1 X104.638 Y136.835 E1.16828
G1 X103.545 Y136.728 E.04174
G1 X102.5 Y136.501 E.04064
G1 X101.489 Y136.157 E.04059
G1 X100.521 Y135.698 E.04072
G1 X99.589 Y135.115 E.04178
G1 X98.753 Y134.446 E.04069
G1 X97.927 Y133.603 E.04486
G1 X97.283 Y132.764 E.0402
G1 X96.879 Y132.118 E.02896
G1 X96.528 Y131.437 E.02912
G1 X96.127 Y130.423 E.04144
G1 X95.836 Y129.317 E.04347
G1 X95.721 Y128.584 E.0282
G1 X95.667 Y127.911 E.02566
G1 X95.658 Y112.436 E.58815
G1 X95.685 Y111.782 E.02488
G1 X95.828 Y110.728 E.04043
G1 X96.098 Y109.668 E.04157
G1 X96.479 Y108.671 E.04056
G1 X96.963 Y107.739 E.03991
G1 X97.533 Y106.886 E.03899
G1 X98.21 Y106.084 E.03989
G1 X98.91 Y105.42 E.03667
M204 S8000
G1 X99.225 Y105.75 F24000
M204 S500
G1 F1800
G1 X99.959 Y105.185 E.0352
G1 X100.601 Y104.78 E.02885
G1 X101.244 Y104.448 E.0275
G1 X102.185 Y104.073 E.0385
G1 X103.342 Y103.77 E.04546
G1 X103.997 Y103.672 E.02517
G1 X104.649 Y103.622 E.02485
G1 X135.335 Y103.621 E1.16626
G1 X136.103 Y103.684 E.02929
G1 X136.852 Y103.811 E.02887
G1 X137.618 Y104.01 E.03008
G1 X138.342 Y104.267 E.0292
G1 X139.095 Y104.615 E.03153
G1 X139.806 Y105.028 E.03125
G1 X140.414 Y105.455 E.02824
G1 X140.96 Y105.91 E.02701
G1 X141.587 Y106.537 E.0337
G1 X142.095 Y107.153 E.03035
G1 X142.538 Y107.796 E.02968
G1 X142.889 Y108.412 E.02695
G1 X143.214 Y109.112 E.02933
G1 X143.48 Y109.849 E.02978
G1 X143.692 Y110.661 E.0319
G1 X143.819 Y111.416 E.0291
G1 X143.885 Y112.443 E.03911
G1 X143.885 Y127.557 E.57443
G1 X143.813 Y128.633 E.04099
G1 X143.679 Y129.399 E.02955
G1 X143.403 Y130.387 E.03899
G1 X143.042 Y131.277 E.0365
G1 X142.579 Y132.137 E.03712
G1 X142.087 Y132.857 E.03314
G1 X141.464 Y133.596 E.03674
G1 X140.742 Y134.28 E.0378
G1 X140.002 Y134.843 E.03534
G1 X139.017 Y135.426 E.0435
G1 X138.395 Y135.711 E.026
G1 X137.769 Y135.943 E.02537
G1 X136.706 Y136.22 E.04175
G1 X136.02 Y136.326 E.02638
G1 X135.351 Y136.378 E.0255
G1 X104.649 Y136.378 E1.16687
G1 X103.628 Y136.278 E.03899
G1 X102.634 Y136.064 E.03864
G1 X101.673 Y135.738 E.03857
G1 X100.729 Y135.291 E.0397
G1 X99.843 Y134.735 E.03975
G1 X99.05 Y134.099 E.03863
G1 X98.281 Y133.314 E.04177
G1 X97.664 Y132.512 E.03846
G1 X97.28 Y131.899 E.02749
G1 X96.949 Y131.258 E.02742
G1 X96.566 Y130.293 E.03946
G1 X96.281 Y129.212 E.04249
G1 X96.176 Y128.538 E.02593
G1 X96.124 Y127.901 E.02429
G1 X96.115 Y112.449 E.58727
G1 X96.14 Y111.831 E.02351
G1 X96.274 Y110.827 E.0385
G1 X96.53 Y109.818 E.03956
G1 X96.891 Y108.869 E.03859
G1 X97.35 Y107.982 E.03796
G1 X97.892 Y107.17 E.0371
G1 X98.534 Y106.406 E.03793
G1 X99.181 Y105.791 E.03393
M204 S8000
G1 X99.496 Y106.121 F24000
M204 S500
G1 F1800
G1 X100.228 Y105.554 E.03519
G1 X100.821 Y105.181 E.02663
G1 X101.424 Y104.868 E.02582
G1 X102.341 Y104.503 E.03751
G1 X103.422 Y104.22 E.04247
G1 X104.04 Y104.127 E.02375
G1 X104.676 Y104.078 E.02424
G1 X135.308 Y104.078 E1.16421
G1 X136.037 Y104.136 E.02779
G1 X136.747 Y104.256 E.02737
G1 X137.475 Y104.444 E.02858
G1 X138.16 Y104.687 E.02762
G1 X138.875 Y105.016 E.02991
G1 X139.568 Y105.418 E.03045
G1 X140.143 Y105.823 E.02673
G1 X140.659 Y106.254 E.02555
G1 X141.241 Y106.837 E.03131
G1 X141.737 Y107.437 E.02959
G1 X142.146 Y108.032 E.02744
G1 X142.479 Y108.614 E.02548
G1 X142.788 Y109.278 E.02783
G1 X143.04 Y109.975 E.02817
G1 X143.243 Y110.748 E.03038
G1 X143.364 Y111.457 E.02734
G1 X143.428 Y112.45 E.03782
G1 X143.428 Y127.549 E.57386
G1 X143.361 Y128.567 E.03877
G1 X143.235 Y129.288 E.02782
G1 X142.974 Y130.228 E.03708
G1 X142.623 Y131.093 E.03548
G1 X142.183 Y131.909 E.03523
G1 X141.73 Y132.571 E.03049
G1 X141.123 Y133.292 E.03582
G1 X140.455 Y133.924 E.03495
G1 X139.758 Y134.457 E.03335
G1 X138.795 Y135.026 E.04251
G1 X138.227 Y135.286 E.02374
G1 X137.642 Y135.503 E.02371
G1 X136.602 Y135.775 E.04086
G1 X135.96 Y135.873 E.02468
G1 X135.324 Y135.922 E.02424
G1 X104.66 Y135.921 E1.16543
G1 X103.687 Y135.825 E.03716
G1 X102.744 Y135.62 E.03668
G1 X101.833 Y135.31 E.03657
G1 X100.938 Y134.884 E.03767
G1 X100.098 Y134.356 E.03771
G1 X99.347 Y133.751 E.03665
G1 X98.635 Y133.024 E.03867
G1 X98.045 Y132.259 E.03672
G1 X97.682 Y131.68 E.02597
G1 X97.369 Y131.078 E.02579
G1 X97.004 Y130.163 E.03744
G1 X96.726 Y129.107 E.0415
G1 X96.631 Y128.493 E.02361
G1 X96.581 Y127.891 E.02296
G1 X96.572 Y112.462 E.5864
G1 X96.594 Y111.88 E.02214
G1 X96.721 Y110.926 E.03658
G1 X96.962 Y109.967 E.03758
G1 X97.303 Y109.067 E.03658
G1 X97.738 Y108.224 E.03605
G1 X98.25 Y107.454 E.03514
G1 X98.859 Y106.728 E.03602
G1 X99.452 Y106.163 E.03113
M204 S8000
G1 X99.767 Y106.492 F24000
M204 S500
G1 F1800
G1 X100.498 Y105.923 E.03521
G1 X101.04 Y105.582 E.02434
G1 X101.604 Y105.288 E.02417
G1 X102.496 Y104.933 E.03649
G1 X103.503 Y104.67 E.03956
G1 X104.1 Y104.58 E.02295
G1 X104.701 Y104.535 E.02291
G1 X135.281 Y104.534 E1.16223
G1 X135.972 Y104.589 E.02635
G1 X136.643 Y104.701 E.02586
G1 X137.351 Y104.884 E.02779
G1 X137.979 Y105.107 E.02533
G1 X138.655 Y105.417 E.02826
G1 X139.329 Y105.808 E.02961
G1 X139.871 Y106.191 E.02522
G1 X140.358 Y106.598 E.02412
G1 X140.896 Y107.136 E.02892
G1 X141.378 Y107.72 E.02878
G1 X141.754 Y108.267 E.02523
G1 X142.069 Y108.816 E.02406
G1 X142.362 Y109.444 E.02634
G1 X142.601 Y110.102 E.02661
G1 X142.795 Y110.836 E.02885
G1 X142.908 Y111.499 E.02556
G1 X142.971 Y112.458 E.03653
G1 X142.971 Y127.542 E.57329
G1 X142.908 Y128.502 E.03656
G1 X142.791 Y129.178 E.02607
G1 X142.545 Y130.069 E.03513
G1 X142.215 Y130.888 E.03356
G1 X141.786 Y131.682 E.0343
G1 X141.373 Y132.286 E.02781
G1 X140.782 Y132.987 E.03485
G1 X140.167 Y133.569 E.03218
G1 X139.513 Y134.07 E.03131
G1 X138.573 Y134.626 E.04151
G1 X138.059 Y134.86 E.02146
G1 X137.515 Y135.064 E.02208
G1 X136.498 Y135.329 E.03994
G1 X135.9 Y135.42 E.02299
G1 X135.299 Y135.465 E.02291
G1 X104.672 Y135.464 E1.16402
G1 X103.746 Y135.371 E.03537
G1 X102.855 Y135.177 E.03466
G1 X101.994 Y134.882 E.03459
G1 X101.147 Y134.478 E.03567
G1 X100.354 Y133.977 E.03565
G1 X99.645 Y133.404 E.03465
G1 X98.988 Y132.734 E.03566
G1 X98.426 Y132.006 E.03495
G1 X98.082 Y131.46 E.02453
G1 X97.789 Y130.897 E.02412
G1 X97.442 Y130.033 E.03539
G1 X97.171 Y129.003 E.04048
G1 X97.085 Y128.446 E.02142
G1 X97.038 Y127.881 E.02155
G1 X97.029 Y112.475 E.58553
G1 X97.049 Y111.929 E.02077
G1 X97.167 Y111.023 E.03472
G1 X97.394 Y110.116 E.03553
G1 X97.716 Y109.264 E.03462
G1 X98.138 Y108.445 E.03502
G1 X98.609 Y107.737 E.03232
G1 X99.184 Y107.049 E.03408
G1 X99.724 Y106.534 E.02836
M204 S8000
G1 X100.039 Y106.864 F24000
M204 S500
G1 F1800
G1 X100.766 Y106.293 E.03513
G1 X101.275 Y105.975 E.02281
G1 X101.804 Y105.699 E.02268
G1 X102.652 Y105.363 E.03467
G1 X103.583 Y105.121 E.03656
G1 X104.143 Y105.035 E.02153
G1 X104.727 Y104.991 E.02226
G1 X135.272 Y104.991 E1.1609
G1 X135.907 Y105.041 E.02421
G1 X136.538 Y105.146 E.02431
G1 X137.226 Y105.324 E.02701
G1 X137.816 Y105.534 E.0238
G1 X138.454 Y105.828 E.0267
G1 X139.09 Y106.198 E.02796
G1 X139.599 Y106.558 E.02369
G1 X140.056 Y106.942 E.02269
G1 X140.55 Y107.436 E.02655
G1 X141.019 Y108.003 E.02797
G1 X141.372 Y108.518 E.02373
G1 X141.667 Y109.035 E.02262
G1 X141.943 Y109.627 E.02482
G1 X142.168 Y110.248 E.0251
G1 X142.35 Y110.942 E.02727
G1 X142.456 Y111.564 E.02398
G1 X142.514 Y112.465 E.03431
G1 X142.514 Y127.535 E.57276
G1 X142.456 Y128.437 E.03435
G1 X142.348 Y129.068 E.02433
G1 X142.116 Y129.91 E.03319
G1 X141.796 Y130.704 E.03254
G1 X141.39 Y131.453 E.03238
G1 X141.016 Y132 E.02518
G1 X140.457 Y132.665 E.03302
G1 X139.879 Y133.214 E.0303
G1 X139.246 Y133.699 E.03031
G1 X138.372 Y134.215 E.03857
G1 X137.877 Y134.441 E.02068
G1 X137.366 Y134.632 E.02073
G1 X136.418 Y134.879 E.03723
G1 X135.857 Y134.965 E.02157
G1 X135.273 Y135.009 E.02226
G1 X104.705 Y135.008 E1.16178
G1 X103.83 Y134.922 E.03342
G1 X102.966 Y134.733 E.03361
G1 X102.155 Y134.454 E.0326
G1 X101.357 Y134.072 E.03362
G1 X100.61 Y133.598 E.03362
G1 X99.943 Y133.057 E.03264
G1 X99.325 Y132.424 E.03362
G1 X98.795 Y131.737 E.03298
G1 X98.475 Y131.225 E.02295
G1 X98.199 Y130.696 E.02268
G1 X97.872 Y129.877 E.03352
G1 X97.621 Y128.921 E.03757
G1 X97.538 Y128.385 E.02061
G1 X97.494 Y127.853 E.02029
G1 X97.486 Y112.479 E.58431
G1 X97.505 Y111.956 E.01989
G1 X97.619 Y111.096 E.03297
G1 X97.834 Y110.24 E.03354
G1 X98.138 Y109.439 E.03256
G1 X98.538 Y108.667 E.03305
G1 X98.982 Y108.002 E.03039
G1 X99.526 Y107.353 E.03219
G1 X99.995 Y106.906 E.02462
M204 S8000
G1 X100.31 Y107.237 F24000
M204 S500
G1 F1800
G1 X100.429 Y107.124 E.00624
G1 X101.034 Y106.664 E.02889
G1 X101.509 Y106.367 E.02129
G1 X102.004 Y106.11 E.0212
G1 X102.807 Y105.793 E.03281
G1 X103.664 Y105.571 E.03365
G1 X104.203 Y105.488 E.02073
G1 X104.752 Y105.448 E.02092
G1 X135.245 Y105.448 E1.15893
G1 X135.861 Y105.496 E.02348
G1 X136.452 Y105.595 E.02277
G1 X137.101 Y105.764 E.02549
G1 X137.653 Y105.961 E.02228
G1 X138.252 Y106.238 E.02508
G1 X138.851 Y106.587 E.02635
G1 X139.327 Y106.925 E.02219
G1 X139.754 Y107.285 E.02123
G1 X140.219 Y107.75 E.02499
G1 X140.659 Y108.285 E.02633
G1 X140.989 Y108.768 E.02223
G1 X141.265 Y109.252 E.02118
G1 X141.524 Y109.811 E.02342
G1 X141.728 Y110.374 E.02276
G1 X141.905 Y111.047 E.02645
G1 X142.003 Y111.628 E.02239
G1 X142.057 Y112.472 E.03214
G1 X142.057 Y127.528 E.57222
G1 X142.003 Y128.372 E.03214
G1 X141.904 Y128.959 E.02262
G1 X141.688 Y129.752 E.03124
G1 X141.377 Y130.521 E.03153
G1 X140.994 Y131.224 E.03043
G1 X140.659 Y131.715 E.02259
G1 X140.133 Y132.342 E.0311
G1 X139.574 Y132.874 E.02933
G1 X138.98 Y133.328 E.02841
G1 X138.171 Y133.805 E.03569
G1 X137.709 Y134.016 E.0193
G1 X137.217 Y134.2 E.01996
G1 X136.337 Y134.429 E.03456
G1 X135.797 Y134.512 E.02076
G1 X135.248 Y134.552 E.02092
G1 X104.738 Y134.552 E1.15957
G1 X103.913 Y134.472 E.0315
G1 X103.101 Y134.296 E.03158
G1 X102.34 Y134.036 E.03056
G1 X101.59 Y133.678 E.03159
G1 X100.887 Y133.234 E.0316
G1 X100.242 Y132.711 E.03156
G1 X99.662 Y132.115 E.03161
G1 X99.165 Y131.467 E.03104
G1 X98.867 Y130.991 E.02134
G1 X98.611 Y130.496 E.02118
G1 X98.302 Y129.721 E.03171
G1 X98.071 Y128.84 E.03462
G1 X97.993 Y128.339 E.01927
G1 X97.951 Y127.825 E.0196
G1 X97.943 Y112.483 E.58309
G1 X97.962 Y111.984 E.01898
G1 X98.07 Y111.17 E.03121
G1 X98.274 Y110.366 E.03153
G1 X98.56 Y109.615 E.03054
G1 X98.938 Y108.889 E.03111
G1 X99.34 Y108.286 E.02754
G1 X99.868 Y107.657 E.03121
G1 X100.266 Y107.278 E.02089
M204 S8000
G1 X100.581 Y107.609 F24000
M204 S500
G1 F1800
G1 X100.716 Y107.48 E.0071
G1 X101.302 Y107.034 E.02799
G1 X101.742 Y106.761 E.01968
G1 X102.203 Y106.522 E.01974
G1 X102.961 Y106.223 E.03097
G1 X103.744 Y106.021 E.03073
G1 X104.263 Y105.942 E.01995
G1 X104.777 Y105.904 E.01959
G1 X135.236 Y105.905 E1.15763
G1 X135.796 Y105.949 E.02135
G1 X136.347 Y106.04 E.02123
G1 X136.976 Y106.204 E.02471
G1 X137.488 Y106.387 E.02066
G1 X138.05 Y106.648 E.02355
G1 X138.611 Y106.976 E.0247
G1 X139.054 Y107.292 E.02068
G1 X139.452 Y107.628 E.0198
G1 X139.887 Y108.065 E.02343
G1 X140.299 Y108.567 E.02468
G1 X140.606 Y109.017 E.0207
G1 X140.863 Y109.47 E.01979
G1 X141.105 Y109.993 E.0219
G1 X141.295 Y110.519 E.02126
G1 X141.46 Y111.153 E.0249
G1 X141.55 Y111.691 E.02073
G1 X141.6 Y112.48 E.03005
G1 X141.6 Y127.52 E.57162
G1 X141.55 Y128.309 E.03005
G1 X141.459 Y128.851 E.02089
G1 X141.258 Y129.595 E.02929
G1 X140.969 Y130.315 E.02949
G1 X140.61 Y130.977 E.02862
G1 X140.3 Y131.431 E.02089
G1 X139.808 Y132.021 E.0292
G1 X139.286 Y132.518 E.02739
G1 X138.713 Y132.956 E.02741
G1 X137.97 Y133.394 E.03278
G1 X137.527 Y133.597 E.01852
G1 X137.069 Y133.767 E.01857
G1 X136.256 Y133.979 E.03193
G1 X135.737 Y134.058 E.01995
G1 X135.223 Y134.096 E.01959
G1 X104.77 Y134.096 E1.15741
G1 X103.996 Y134.023 E.02955
G1 X103.236 Y133.859 E.02955
G1 X102.501 Y133.608 E.02952
G1 X101.8 Y133.272 E.02954
G1 X101.144 Y132.856 E.02952
G1 X100.541 Y132.365 E.02955
G1 X100 Y131.807 E.02954
G1 X99.535 Y131.199 E.02909
G1 X99.261 Y130.758 E.01973
G1 X99.022 Y130.297 E.01974
G1 X98.732 Y129.566 E.02989
G1 X98.521 Y128.758 E.03174
G1 X98.446 Y128.277 E.0185
G1 X98.407 Y127.797 E.0183
G1 X98.4 Y112.487 E.58188
G1 X98.418 Y112.012 E.01807
G1 X98.516 Y111.269 E.02848
G1 X98.706 Y110.516 E.02952
G1 X98.983 Y109.79 E.02953
G1 X99.337 Y109.112 E.02907
G1 X99.699 Y108.569 E.0248
G1 X100.193 Y107.978 E.02928
G1 X100.538 Y107.65 E.01809
M204 S8000
G1 X100.853 Y107.981 F24000
M204 S500
G1 F1800
G1 X101.022 Y107.82 E.00887
G1 X101.569 Y107.405 E.0261
G1 X101.975 Y107.154 E.01814
G1 X102.402 Y106.934 E.01826
G1 X103.115 Y106.654 E.02911
G1 X103.825 Y106.471 E.02787
G1 X104.306 Y106.397 E.0185
G1 X104.786 Y106.361 E.01829
G1 X135.227 Y106.362 E1.15695
G1 X135.75 Y106.403 E.01994
G1 X136.242 Y106.485 E.01896
G1 X136.85 Y106.643 E.02388
G1 X137.324 Y106.814 E.01915
G1 X137.828 Y107.048 E.02112
G1 X138.37 Y107.365 E.02386
G1 X138.78 Y107.658 E.01915
G1 X139.149 Y107.97 E.01837
G1 X139.541 Y108.364 E.02112
G1 X139.939 Y108.849 E.02385
G1 X140.222 Y109.266 E.01915
G1 X140.46 Y109.686 E.01835
G1 X140.679 Y110.159 E.01981
G1 X140.855 Y110.645 E.01964
G1 X141.015 Y111.258 E.02408
G1 X141.097 Y111.754 E.01911
G1 X141.143 Y112.487 E.02791
G1 X141.143 Y127.513 E.57108
G1 X141.097 Y128.246 E.02791
G1 X141.015 Y128.744 E.01918
G1 X140.829 Y129.438 E.02731
G1 X140.561 Y130.109 E.02746
G1 X140.225 Y130.73 E.02684
G1 X139.942 Y131.148 E.01919
G1 X139.483 Y131.699 E.02726
G1 X138.98 Y132.178 E.0264
G1 X138.447 Y132.584 E.02546
G1 X137.768 Y132.984 E.02995
G1 X137.359 Y133.172 E.01711
G1 X136.92 Y133.335 E.0178
G1 X136.175 Y133.529 E.02926
G1 X135.694 Y133.603 E.0185
G1 X135.214 Y133.639 E.01829
G1 X104.781 Y133.639 E1.15665
G1 X104.053 Y133.569 E.0278
G1 X103.346 Y133.416 E.02749
G1 X102.663 Y133.18 E.02746
G1 X102.011 Y132.866 E.0275
G1 X101.401 Y132.478 E.02748
